svg/black/music.svg

<svg xmlns="http://www.w3.org/2000/svg" width="32" height="32" viewBox="0 0 32 32">
  <path d="M18.6505051,0.226262626 C17.7777778,0.0808080808 16.9050505,0 16,0 C7.15959596,0 0,7.15959596 0,16 C0,19.3939394 1.06666667,22.5292929 2.86060606,25.1313131 C3.95959596,23.5151515 6.4969697,22.4 9.43838384,22.4 C11.4585859,22.4 13.2848485,22.9333333 14.5939394,23.789899 L18.6505051,0.226262626 Z M27.1515152,4.54141414 C29.9151515,10.6505051 27.4909091,13.9151515 27.4909091,13.9151515 C25.6161616,8.27474747 20.1858586,7.45050505 20.1858586,7.45050505 C20.1858586,7.45050505 16.6141414,26.6989899 16.6141414,26.9414141 C16.6141414,29.0262626 14.4,30.7878788 11.3939394,31.3212121 C12.8484848,31.7575758 14.4,32 16,32 C24.840404,32 32,24.840404 32,16 C32,11.5070707 30.1414141,7.45050505 27.1515152,4.54141414 Z"/>
</svg>

<svg xmlns="http://www.w3.org/2000/svg" width="32" height="32"><path d="M18.65.226A16 16 0 0 0 16 0C7.16 0 0 7.16 0 16c0 3.394 1.067 6.53 2.86 9.131 1.1-1.616 3.637-2.731 6.578-2.731 2.02 0 3.847.533 5.156 1.39L18.65.226zm8.502 4.315c2.763 6.11.339 9.374.339 9.374-1.875-5.64-7.305-6.464-7.305-6.464s-3.572 19.248-3.572 19.49c0 2.085-2.214 3.847-5.22 4.38C12.848 31.758 14.4 32 16 32c8.84 0 16-7.16 16-16 0-4.493-1.859-8.55-4.848-11.459z"/></svg>
